X:158
M:2/4
L:1/8
Q:1/2=70
K:A
!wedge!a!wedge!a!wedge!e!wedge!e|!wedge!f!wedge!f e2|\
dBcA|G/A/B/G/ A[AA,]|!wedge!A!wedge!A!wedge!E!wedge!E|\
!wedge!F!wedge!F E2|D"G.Fl.""_Vio."[dB,][cC]A|G/A/B/G/ A2:|
|:Ac B/c/d/B/|cfeG|AE Ff/e/|dBGE|\

